X: 1
T: My Darling Asleep
R: jig
M: 6/8
L: 1/8
K: Dmaj
|:fdd cAA|BGG A2G|FAA def|gfg eag|
fdd cAA|BGG A2G|FAA def|1gec d2:|2 gec d2 A||
FAA bcd|FAA BAG|FAA def|gfg eag|
fdd cAA|BGG A2G|FAA def|1 gec d2 A:|2 gec d2 e||



